src/images/std-icons/std-heading.svg

<svg xmlns="http://www.w3.org/2000/svg" width="512" height="512" viewBox="0 0 512 512">
  <title>heading</title>
  <path fill="#000" fill-rule="nonzero" d="M53.3345848,138.666667 C53.3232701,147.157067 56.6910463,155.302984 62.694671,161.306609 C68.6982958,167.310234 76.8442133,170.67801 85.3346133,170.666667 L160.00128,170.666667 L160.00128,394.666667 C160.00128,412.339779 174.328168,426.666667 192.00128,426.666667 C209.674392,426.666667 224.00128,412.339779 224.00128,394.666667 L224.00128,170.666667 L298.667947,170.666667 C316.341059,170.666667 330.667947,156.339779 330.667947,138.666667 C330.667947,120.993555 316.341059,106.666638 298.667947,106.666638 L85.3346133,106.666638 C76.8442133,106.655323 68.6982958,110.0231 62.694671,116.026724 C56.6910463,122.030349 53.3232701,130.176267 53.3345848,138.666667 Z M426.667947,213.333333 L298.667947,213.333333 C280.994835,213.333333 266.667947,227.660221 266.667947,245.333333 C266.667947,263.006445 280.994835,277.333333 298.667947,277.333333 L330.667947,277.333333 L330.667947,394.666667 C330.667947,412.339779 344.994835,426.666667 362.667947,426.666667 C380.341059,426.666667 394.667947,412.339779 394.667947,394.666667 L394.667947,277.333333 L426.667947,277.333333 C444.341059,277.333333 458.667947,263.006445 458.667947,245.333333 C458.667947,227.660221 444.341059,213.333333 426.667947,213.333333 Z"/>
</svg>

<svg xmlns="http://www.w3.org/2000/svg" viewBox="0 0 512 512">
  <title>
    heading
  </title>
  <path d="M53.33 138.67a31.96 31.96 0 0 0 32 32H160v224a32 32 0 1 0 64 0v-224h74.67a32 32 0 1 0 0-64H85.33a31.96 31.96 0 0 0-32 32zm373.34 74.66h-128a32 32 0 1 0 0 64h32v117.34a32 32 0 1 0 64 0V277.33h32a32 32 0 1 0 0-64z"/>
</svg>
